img/logos/bitbucket.svg

<?xml version="1.0" encoding="UTF-8" standalone="no"?>
<svg width="256px" height="295px" viewBox="0 0 256 295" version="1.1" xmlns="http://www.w3.org/2000/svg" xmlns:xlink="http://www.w3.org/1999/xlink" preserveAspectRatio="xMinYMin meet">
	<g fill="#205081">
		<path d="M128,4.60742407e-06 L128,4.60742407e-06 C57.7318818,4.60742407e-06 0.0116395051,18.8218157 0.0116395051,42.6627818 C0.0116395051,48.9367227 15.069093,138.026665 21.3430339,173.160715 C23.8526056,189.472966 65.2606085,212.059146 128,212.059146 L128,212.059146 C190.739386,212.059146 230.892591,189.472966 234.656972,173.160715 C240.930901,138.026665 255.988355,48.9367227 255.988355,42.6627818 C254.733569,18.8218157 198.268112,4.60742407e-06 128,4.60742407e-06 L128,4.60742407e-06 Z M128,183.199025 C105.41382,183.199025 87.8467888,165.631988 87.8467888,143.045808 C87.8467888,120.459628 105.41382,102.892607 128,102.892607 C150.586169,102.892607 168.153205,120.459628 168.153205,143.045808 C168.153205,164.377203 150.586169,183.199025 128,183.199025 L128,183.199025 Z M128,55.2106636 C82.8276337,55.2106636 46.4387859,47.6819368 46.4387859,37.6436384 C46.4387859,27.6053283 82.8276337,20.0766016 128,20.0766016 C173.172349,20.0766016 209.561208,27.6053283 209.561208,37.6436384 C209.561208,47.6819368 173.172349,55.2106636 128,55.2106636 L128,55.2106636 Z"></path>
		<path d="M220.608176,207.039991 C218.098592,207.039991 216.843807,208.294777 216.843807,208.294777 C216.843807,208.294777 185.474114,233.390541 129.008657,233.390541 C72.5432113,233.390541 41.1735069,208.294777 41.1735069,208.294777 C41.1735069,208.294777 38.6639351,207.039991 37.4091493,207.039991 C34.899566,207.039991 32.3899943,208.294777 32.3899943,212.059146 L32.3899943,213.313932 C37.4091493,239.664482 41.1735069,258.486293 41.1735069,260.995864 C44.937876,279.817687 82.5815098,294.875141 127.753871,294.875141 L127.753871,294.875141 C172.926232,294.875141 210.569866,279.817687 214.334235,260.995864 C214.334235,258.486293 218.098592,239.664482 223.117747,213.313932 L223.117747,212.059146 C224.372533,209.549563 223.117747,207.039991 220.608176,207.039991 L220.608176,207.039991 Z"></path>
		<circle cx="128" cy="141.79108" r="20.076605"></circle>
	</g>
</svg>

<svg width="256" height="295" viewBox="0 0 256 295" xmlns="http://www.w3.org/2000/svg" preserveAspectRatio="xMinYMin meet"><g fill="#205081"><path d="M128 0C57.732 0 .012 18.822.012 42.663c0 6.274 15.057 95.364 21.33 130.498 2.51 16.313 43.92 38.9 106.658 38.9 62.74 0 102.893-22.587 106.657-38.9 6.274-35.133 21.33-124.223 21.33-130.497C254.735 18.823 198.268 0 128 0zm0 183.2c-22.586 0-40.153-17.568-40.153-40.154 0-22.586 17.567-40.153 40.153-40.153s40.153 17.567 40.153 40.153c0 21.33-17.567 40.153-40.153 40.153zm0-127.99c-45.172 0-81.56-7.528-81.56-17.566 0-10.04 36.388-17.567 81.56-17.567 45.172 0 81.56 7.528 81.56 17.567 0 10.038-36.388 17.567-81.56 17.567z"/><path d="M220.608 207.04c-2.51 0-3.764 1.255-3.764 1.255s-31.37 25.096-87.835 25.096c-56.467 0-87.836-25.095-87.836-25.095s-2.51-1.255-3.765-1.255c-2.51 0-5.02 1.255-5.02 5.02v1.254c5.02 26.35 8.784 45.172 8.784 47.682 3.764 18.822 41.408 33.88 86.58 33.88s82.816-15.058 86.58-33.88c0-2.51 3.765-21.332 8.784-47.682v-1.255c1.255-2.51 0-5.02-2.51-5.02z"/><circle cx="128" cy="141.791" r="20.077"/></g></svg>
